X:1
T:Title
%%score { ( 1 3 ) | ( 2 4 ) }
L:1/8
M:4/4
K:Eb
V:1 treble nm="Grand Piano"
V:3 treble 
V:2 bass 
V:4 bass 
V:1
 z4 z2[Q:1/4=96] E2 | GGGG GFEG | B2 [DB]2 [EB]2 [GB]2 | [Ge]>[Gd] [Ge][Ac] [GB]2 [EG]2 | %4
 [DF]6 E2 | GGGG GFEG |[M:3/4] B2 B2 B2 |[M:1/4] c2 |[M:4/4] d>_d =d[Ge] [Fd]2 [=A,Ec]2 | %9
[M:3/4] B6 |[M:1/4] B2 |[M:4/4] G G3 G_G=GB | [B,DA]6 [DB]2 | [DA] [DA]3 [Bd][Ac][GB][FA] | %14
 [B,EG]6 [B,GB][B,GB] | [Ge][Ge][Ge][Ge] d2 dd | cedc [EGB]2 G2 | B>=A Bc [EG]2 [A,DF]2 | %18
[M:3/4] [G,E]6 |] %19
V:2
 z4 z2 [E,G,]2 | [E,B,E][E,B,E][E,B,E][E,B,E] [E,B,E][E,A,E][E,G,][E,B,E] | %2
 [E,G,E]2 [B,,A,]2 [E,G,]2 [E,B,]2 | [E,B,]>[E,B,] [E,B,][E,E] [E,E]2 [E,B,]2 | [B,,B,]6 [E,G,]2 | %5
 [E,B,E][E,B,E][E,B,E][E,B,E] [E,B,E][E,A,E][E,G,][E,B,E] |[M:3/4] [E,G,E]2 [F,A,D]2 [G,B,E]2 | %7
[M:1/4] [_G,B,E]2 |[M:4/4] [F,B,F]>[F,=A,=E] [F,B,F][F,A,] [F,B,]2 F,,2 |[M:3/4] z2 G,2 A,2 | %10
[M:1/4] [E,G,E]2 |[M:4/4] [E,B,E] [E,B,E]3 [E,B,E][E,=A,E][E,B,E][E,G,E] | %12
 F,=E,F,D, B,,2 [B,,F,]2 | [B,,F,] [B,,F,]3 [B,,B,][B,,B,][B,,B,][B,,B,] | E,B,,C,D, E,2 E,E, | %15
 [E,B,][E,B,][E,B,][E,B,][K:treble] [G,=B,G]2 [G,B,G][G,B,F] | %16
 [A,CE][A,CA][A,EA][A,EA][K:bass] E,2 G,2 | B,>=A, B,C B,2 B,,2 |[M:3/4] E,6 |] %19
V:3
 x8 | x8 | x8 | x8 | x8 | x8 |[M:3/4] x6 |[M:1/4] x2 |[M:4/4] x8 |[M:3/4] [B,D]2 E2 F2 | %10
[M:1/4] x2 |[M:4/4] x8 | x8 | x8 | x8 | x8 | x8 | x8 |[M:3/4] x6 |] %19
V:4
 x8 | x8 | x8 | x8 | x8 | x8 |[M:3/4] x6 |[M:1/4] x2 |[M:4/4] x8 |[M:3/4] B,,6 |[M:1/4] x2 | %11
[M:4/4] x8 | x8 | x8 | x8 | x4[K:treble] x4 | x4[K:bass] x4 | x8 |[M:3/4] x6 |] %19

